rospo-icon-theme-classic-common/24x24/places/folder-black-pictures.svg

<svg height="24" width="24" xmlns="http://www.w3.org/2000/svg"><rect height="12" opacity=".2" rx="1" width="20" x="2" y="9.5"/><path d="m2 17c0 .554.446 1 1 1h18c .554 0 1-.446 1-1v-11c0-.554-.446-1-1-1h-10v-1c0-.554-.446-1-1-1h-7c-.554 0-1 .446-1 1" fill="#3f3f3f"/><rect height="12" opacity=".2" rx="1" width="20" x="2" y="8.5"/><rect fill="#dcdcdc" height="8" rx="1" width="16" x="4" y="7"/><rect fill="#4f4f4f" height="12" rx="1" width="20" x="2" y="9"/><path d="m3 3c-.554 0-1 .446-1 1v .5c0-.554.446-1 1-1h7c .554 0 1 .446 1 1v-.5c0-.554-.446-1-1-1zm8 2v .5h10c .554 0 1 .446 1 1v-.5c0-.554-.446-1-1-1z" fill="#fff" opacity=".1"/><path d="m9.5 12c-.5 0-.5.5-.5.5v5c0 .5.5.5.5.5h6s .5 0 .5-.5v-5c0-.5-.5-.5-.5-.5zm3.5 4 1-1.22 1 1.22v1h-5v-1.5l1.25-1.25z" fill="#c2c2c2"/></svg>

<svg xmlns="http://www.w3.org/2000/svg" width="24" height="24" version="1">
 <rect style="opacity:0.2" width="20" height="12" x="2" y="9.5" rx="1" ry="1"/>
 <path style="fill:#3f3f3f" d="M 2,17 C 2,17.554 2.446,18 3,18 H 21 C 21.554,18 22,17.554 22,17 V 6 C 22,5.446 21.554,5 21,5 H 11 V 4 C 11,3.446 10.554,3 10,3 H 3 C 2.446,3 2,3.446 2,4"/>
 <rect style="opacity:0.2" width="20" height="12" x="2" y="8.5" rx="1" ry="1"/>
 <rect style="fill:#dcdcdc" width="16" height="8" x="4" y="7" rx="1" ry="1"/>
 <rect style="fill:#4f4f4f" width="20" height="12" x="2" y="9" rx="1" ry="1"/>
 <path style="opacity:0.1;fill:#ffffff" d="M 3,3 C 2.446,3 2,3.446 2,4 V 4.5 C 2,3.946 2.446,3.5 3,3.5 H 10 C 10.554,3.5 11,3.946 11,4.5 V 4 C 11,3.446 10.554,3 10,3 Z M 11,5 V 5.5 H 21 C 21.554,5.5 22,5.946 22,6.5 V 6 C 22,5.446 21.554,5 21,5 Z"/>
 <path style="fill:#c2c2c2" d="M 9.5,12 C 9,12 9,12.5 9,12.5 V 17.5 C 9,18 9.5,18 9.5,18 H 15.5 C 15.5,18 16,18 16,17.5 V 12.5 C 16,12 15.5,12 15.5,12 Z M 13,16 14,14.78 15,16 V 17 H 10 V 15.5 L 11.25,14.25 Z"/>
</svg>
